X:921
T:Just as the sun was setting
R:Waltz
C:John Kirkpatrick
S:SF Fiddlers handout
Z:Orig Transcr. by Tom Ross
Z:Transcription, minor formatting, chords:Mike Long
M:3/4
L:1/4
K:C
E|\
"Am"A>B A|e2 a|"G"g>a g|"Em"e2 d|\
"Am"c>B A|"G"B A G|"(Am)"A>B A/G/|"Em"E2 E/G/|\
"Am"A>B A|e2 a|"G"g>a g|
"Em"e2 d|\
"Am"c>B A|"G"e>d e|"Am"A2 G|A2:|\
|:e|\
"Am"a>b a|"E"^g2 e/^f/|"G"g>a g|"D"^f2 d/e/|\
"F"f>g f|
"Am"e d B|"C"c>d c|"G"B A G|\
"Am"A>B A|e2 a|"G"g>a g|"Em"e2 d|\
"Am"c>B A|"Em"e>d e|"Am"A2 G|A2:|
